!!!OTL: 1662. Erfahrung eines Lebemanns.
!!!ARE: Europa, Mitteleuropa, Deutschland
!!!SCT: E1662
!!!TXL: @@NDS
!!!YEM: Copyright 1995, estate of Helmut Schaffrath.
**kern	**text
*ICvox	*
*M4/4	*
*met(c)	*
*k[f#]	*
*G:	*
=1	=1
!LO:TX:a:t=Mel. bei Werlin, S. 2348.	!
4r	.
{4g	Kehr
4g	wie-
4g	-der,
=2	=2
(4.cc	Glück
8dd	.
4ee)	.
4cc	mit
=3	=3
2dd	Freu-
4cc}	-den,
{4cc	und
=4	=4
4dd	wend
4cc	Un-
(<4b	-fall
8aL	.
8gJ)	.
=5	=5
4a	.
4a	von
2g	mir!
=6	=6
4r}	.
{4g	Daß
4g	ich
4g	mich
=7	=7
(4.cc	von
8dd	der
4ee)	Lieb
4cc	ſoll
=8	=8
2dd	ſchei-
4cc}	-den,
{4cc	ach
=9	=9
4dd	Gott,
4cc	das
(<4b	klag
8aL	.
8gJ)	.
=10	=10
4a	.
4a	ich
2g	dir!
=11	=11
4r}	.
{4dd	Wenn
4dd	ich
4dd	be-
=12	=12
4cc	-denk
4ee	den
4dd	A-
4cc	-ne-
=13	=13
2dd	-fang,
4r}	.
{4g	ſo
=14	=14
4cc	hat
4b	mein
4a	Glück
4g	ein
=15	=15
4a	Krebs-
4b	.
4g}	-gang,
{4cc	kehr
=16	=16
4g	wie-
4cc	-der,
4b	Glück,
4g	und
=17	=17
4a	machs
4a	nit
2g;}	lang!
==	==
!!!AGN: Staende -, Hofe -, Ritter - Lied, Liebe
!!!ONB: ESAC (Essen Associative Code) Database: ERK3
!!!AMT: simple quadruple
!!!AIN: vox
!!!EED: Helmut Schaffrath
!!!EEV: 1.0
!!!RDF**kern: <= below
!!!GTL: Staendelieder (Berufslieder). 9. Hofelieder.
!!!URL-scan: https://rosdok.uni-rostock.de/mcrviewer/recordIdentifier/rosdok_ppn745177999/iview2/phys_0471.iview2?x=-449.8344612962892&y=1165.7171320535708&scale=0.47549036216460333&rotation=0&layout=singlePageLayout
!!!ENC: Anna Maria Matuszewska
!!!EEV: 2025/08/01
*-	*-
